X:1
T:Bargenny's Bowling Green
C:John Riddle
O:Gow Coll.
M:6/8
L:1/8
N:From a Barbara McOwen transcription
S:http://www.scottishdance.net/highland/dances/bargenny.abc	2015-6-27
R:Jig
K:D minor
   A |\
"Dm"DED D2 c | "C"GEC C2 E | "Dm"DED D2 e | f2 d "Am"ecA |\
"F"fgf {f}"C"e2 d | "F"cAc "C"C2 E | "Dm"DED D2 f | "C"(e{f}g)e "Dm"d2 :|
|: A |\
"Dm"ded d2 a | "C"gec c2 e | "Dm"ded d2 a | "C"g2 e "Dm"fdA |\
"F"fgf {f}"C"e2 d | "F"cAc "C"C2 E | "Dm"DED D2 f | "C"(e{f}g)e "Dm"d2 :|
|: A |\
"Dm"dAd "Am"cAc | "C"GEC C2 c | "Dm"dAd "Am"cAc | "Dm"dAd "Am"cAc |\
"Dm"fed cAF | "C"GEC C2 E | "Dm"DED D2 f | "C"(e{f}g)e "Dm"d2 :|
|: f/g/ |\
"Dm"afd afd | "C"gec efg | "Dm"afd afd | "Dm"afd d2 e |\
"F"fgf {f}"C"e2 d | "F"cAc "C"C2 E | "Dm"DED D2 f | "C"(e{f}g)e "Dm"d2 :|
